build/img/bg-circles.svg

<svg width="164" height="164" viewBox="0 0 164 164" fill="none" xmlns="http://www.w3.org/2000/svg">
<path d="M6.59315 0C2.31879 12.5496 0 26.004 0 40C0 108.483 55.5167 164 124 164C137.996 164 151.45 161.681 164 157.407V156.35C151.46 160.66 138.003 163 124 163C56.069 163 1 107.931 1 40C1 25.9969 3.34002 12.5403 7.65036 0H6.59315Z" fill="white" fill-opacity="0.2"/>
<path d="M41.1273 0C35.2788 12.0949 32 25.6645 32 40C32 90.8102 73.1898 132 124 132C138.335 132 151.905 128.721 164 122.873V121.76C151.927 127.678 138.352 131 124 131C73.7421 131 33 90.2579 33 40C33 25.6483 36.3223 12.0726 42.2398 0H41.1273Z" fill="white" fill-opacity="0.4"/>
<path d="M79.2779 0C69.7771 10.6151 64 24.6329 64 40C64 73.1371 90.8629 100 124 100C139.367 100 153.385 94.2229 164 84.7221V83.3709C153.486 93.073 139.435 99 124 99C91.4152 99 65 72.5848 65 40C65 24.5651 70.927 10.5145 80.6291 0H79.2779Z" fill="white" fill-opacity="0.6"/>
</svg>

<svg width="164" height="164" fill="none" xmlns="http://www.w3.org/2000/svg"><path d="M6.593 0C2.32 12.55 0 26.004 0 40c0 68.483 55.517 124 124 124 13.996 0 27.45-2.319 40-6.593v-1.057c-12.54 4.31-25.997 6.65-40 6.65C56.069 163 1 107.931 1 40 1 25.997 3.34 12.54 7.65 0H6.593z" fill="#fff" fill-opacity=".2"/><path d="M41.127 0C35.28 12.095 32 25.665 32 40c0 50.81 41.19 92 92 92 14.335 0 27.905-3.279 40-9.127v-1.113c-12.073 5.918-25.648 9.24-40 9.24-50.258 0-91-40.742-91-91 0-14.352 3.322-27.927 9.24-40h-1.113z" fill="#fff" fill-opacity=".4"/><path d="M79.278 0C69.778 10.615 64 24.633 64 40c0 33.137 26.863 60 60 60 15.367 0 29.385-5.777 40-15.278v-1.351C153.486 93.073 139.435 99 124 99c-32.585 0-59-26.415-59-59 0-15.435 5.927-29.486 15.63-40h-1.352z" fill="#fff" fill-opacity=".6"/></svg>
